X: 1645
T: Sabâ Seyir
C: Erol Bingöl
O: Turkey
F: http://compmusic.upf.edu/node/140
N: saba--seyir--sofyan--1--erol_bingol
N: makam= saba
N: form= seyir
N: usul= sofyan = 4/4
M: 4/4
L: 1/16
K: C _2/4B _3/4d  
Q: 1/4=60
%%MIDI tuningsystem comma53
A6c2 B4 d4  | c2d2 c2B2 c2cB A4  | A2B2 c2d2 e2d2 c2B2  | \
w:   |   |   | 
c6G2 A2B2 c4  | 
w:   | 
c6d2 e4 f4  | g2_7/8ab a2g2 f4 e4  | \
w:   |   | 
d2f2 e2d2 c2de d2c2  | c3B cBBA A8  | 
w:   |   | 
|


